html/assets/images/dynamic/icon6.svg

<svg width="74" height="92" viewBox="0 0 74 92" fill="none" xmlns="http://www.w3.org/2000/svg">
<g id="Group">
<path id="Vector" d="M26.9858 1.66089L28.289 6.50943" stroke="#00999A" stroke-width="4" stroke-miterlimit="10"/>
<path id="Vector_2" d="M10.4292 11.4539L13.9746 14.9992" stroke="#00999A" stroke-width="4" stroke-miterlimit="10"/>
<path id="Vector_3" d="M1.00024 28.2227L5.84878 29.5258" stroke="#00999A" stroke-width="4" stroke-miterlimit="10"/>
<path id="Vector_4" d="M1.21216 47.4633L6.0607 46.1602" stroke="#00999A" stroke-width="4" stroke-miterlimit="10"/>
<path id="Vector_5" d="M11.0239 64.0214L14.5693 60.4761" stroke="#00999A" stroke-width="4" stroke-miterlimit="10"/>
<path id="Vector_6" d="M63.5705 63.4273L60.0251 59.9011" stroke="#00999A" stroke-width="4" stroke-miterlimit="10"/>
<path id="Vector_7" d="M72.9999 46.6777L68.1514 45.3745" stroke="#00999A" stroke-width="4" stroke-miterlimit="10"/>
<path id="Vector_8" d="M72.789 27.4368L67.9404 28.7399" stroke="#00999A" stroke-width="4" stroke-miterlimit="10"/>
<path id="Vector_9" d="M62.9968 10.8792L59.4514 14.4245" stroke="#00999A" stroke-width="4" stroke-miterlimit="10"/>
<path id="Vector_10" d="M46.2277 1.4502L44.9246 6.29874" stroke="#00999A" stroke-width="4" stroke-miterlimit="10"/>
<path id="Vector_11" d="M46.0363 85.7727H42.2034L38.3706 89.6055H34.5377L30.7049 85.7727H26.8721" stroke="#00999A" stroke-width="4" stroke-miterlimit="10"/>
<path id="Vector_12" d="M23.0391 72.3577H49.8689" stroke="#00999A" stroke-width="4" stroke-miterlimit="10"/>
<path id="Vector_13" d="M23.0391 80.0234H49.8689" stroke="#00999A" stroke-width="4" stroke-miterlimit="10"/>
<path id="Vector_14" d="M47.9523 68.5249V64.6921C47.9523 60.6293 49.6771 56.5856 52.5517 53.711C56.8829 49.3607 59.4509 42.5766 59.4509 35.9458C59.4509 23.2399 49.1597 12.9487 36.4538 12.9487C23.748 12.9487 13.4568 23.2399 13.4568 35.9458C13.4568 42.5766 16.0248 49.3607 20.3559 53.711C23.2305 56.5856 24.9553 60.6293 24.9553 64.6921V68.5249" stroke="#00999A" stroke-width="4" stroke-miterlimit="10"/>
</g>
</svg>

<svg width="74" height="92" fill="none" xmlns="http://www.w3.org/2000/svg"><path d="M26.986 1.66l1.303 4.85M10.43 11.454l3.545 3.545M1 28.223l4.849 1.303M1.212 47.463l4.849-1.303m4.963 17.861l3.545-3.545m49.001 2.951l-3.545-3.526M73 46.678l-4.849-1.303m4.638-17.938L67.94 28.74m-4.943-17.86l-3.546 3.544M46.228 1.45L44.925 6.3m1.111 79.473h-3.833l-3.832 3.833h-3.833l-3.833-3.833h-3.833M23.04 72.358h26.829M23.04 80.023h26.829m-1.917-11.498v-3.833c0-4.063 1.725-8.106 4.6-10.981 4.33-4.35 6.899-11.134 6.899-17.765 0-12.706-10.291-22.997-22.997-22.997s-22.997 10.29-22.997 22.997c0 6.63 2.568 13.415 6.899 17.765 2.874 2.875 4.6 6.918 4.6 10.981v3.833" stroke="#00999A" stroke-width="4" stroke-miterlimit="10"/></svg>
